X:1
T:Recessit Pastor noster - Handl
T:#
%%score 1 2 3
L:1/8
Q:1/4=200
M:none
K:C
V:1 treble nm="Soprano" snm="S"
V:2 treble nm="Alto" snm="A"
V:3 treble-8 nm="Tenor" snm="T"
V:1
"^Responsory IV \nfor Holy Saturday" D8"^Recessit Pastor noster""^Jacob Handl\n(1550-1591)" ^F8- | %1
w: Re- ces\-|
 F4 G4 A8 | A4 (A6 ^G^F G4) | A8 z4 A4 | c4 B4 z4 A4- | A4 G4 F8 | E8 z4 D4 |[M:4/2] F4 E4 D8 | %8
w: * sit Pa-|stor no\- * * *|ster, re-|ces- sit Pa\-|* stor no-|ster, fons|a- quae vi-|
 ^C8 z4 E4 | G8 A4 (A4- | A4 G2 F2 G4) G4 | A8 z4 A4- | A4 G4 _B4 B4- | B4 G4 A8- | A8 z4 F4- | %15
w: vae, ad|cu- ius tran\-|* * * * si-|tum sol|* ob- scu- ra\-|* tus est,|* sol|
 F4 E4 D4 (F4- | F2 E2 D8) ^C4 | D8 z4 E4- | E4 G4 A8 | G4 _B8 B4 | A8 z4 ^F4- | F4 G4 _B8 | %22
w: * ob- scu- ra\-|* * * tus|est: Nam|* et il-|le ca- ptus|est, qui|* ca- pti-|
 A4 G4 G8 | G4 c8 =B4- | B4 A8 ^G4 | A8 z4 E4- | E2 E2 E4 G4 A4 | (F8 G8) | A8 z4 A4 | %29
w: vum te- ne-|bat pri- mum|* ho- mi-|nem: ho\-|* di- e por- tas|mor\- *|tis, et|
 G4 G4 G6 G2 | G8 z4 A4 | A4 G4 F8 | E4 (A6 G2 F4) | (E2 D2 D6 ^CB, C4) | D8 z4 E4- | %35
w: se- ras pa- ri-|ter Sal-|va- tor no-|ster dis\- * *|ru\- * * * * *|pit, ho\-|
 E2 E2 E4 G4 A4 | (F8 G8) | A8 z4 A4 | G4 G4 G6 G2 | G8 z4 A4 | A4 G4 F8 | %41
w: * di- e por- tas|mor\- *|tis, et|se- ras pa- ri-|ter Sal-|va- tor no-|
[Q:1/4=197] E4[Q:1/4=193] (A6[Q:1/4=189] G2[Q:1/4=186] F4) | %42
w: ster dis\- * *|
[Q:1/4=183] (E2[Q:1/4=181] D2[Q:1/4=177] D6[Q:1/4=174] ^C[Q:1/4=173]B,[Q:1/4=171] C4) | %43
w: ru\- * * * * *|
[Q:1/4=170] D16 ||"^Secunda pars" F8 E4 E4 | ^F4 A8 ^G4 | A8 z4 A4- | A4 _B8 A4 | z4 A4 _B4 A4 | %49
w: pit.|An- te cu-|ius con- spe-|ctum mors|* fu- git,|mors fu- git,|
 z4 c4 =B4 A4 | ^G4 A4 z4 F4- | F4 E4 (E6 D2 | ^C8) z4 E4 | A16 | A8 z4 ^F4 | ^F4 G4 A4 A4 | %56
w: ad cu- ius|vo- cem mor\-|* tu- i *|* re-|sur-|gunt: vi-|den- tes au- tem|
 G8 G4 G4- | (G2 F2 E4) C4 (c4- | c2 B2 A6 G2 F4) | E4 (F6 E2 E4) | F4 z2 A2 G4 F4 | %61
w: e- um por\-|* * * tae, por\-||tae mor\- * *|tis con- fra- ctae|
 E4 z2 A4 G4 F2 | E8 z4 F4 | (E2 D2 D8) ^C4 | D8 z4 E4- | E2 E2 E4 G4 A4 | (F8 G8) | A8 z4 A4 | %68
w: sunt, con- fra- ctae|sunt, con-|fra- * * tae|sunt. Ho\-|* di- e por- tas|mor\- *|tis, et|
 G4 G4 G6 G2 | G8 z4 A4 | A4 G4 F8 | E4 (A6 G2 F4) | (E2 D2 D6 ^CB, C4) | D8 z4 E4- | %74
w: se- ras pa- ri-|ter Sal-|va- tor no-|ster dis\- * *|ru\- * * * * *|pit, ho\-|
 E2 E2 E4 G4 A4 | (F8 G8) | A8 z4 A4 | G4 G4 G6 G2 | G8 z4 A4 | A4 G4 F8 | %80
w: * di- e por- tas|mor\- *|tis, et|se- ras pa- ri-|ter Sal-|va- tor no-|
[Q:1/4=197] E4[Q:1/4=193] (A6[Q:1/4=189] G2[Q:1/4=186] F4) | %81
w: ster dis\- * *|
[Q:1/4=183] (E2[Q:1/4=181] D2[Q:1/4=177] D6[Q:1/4=174] ^C[Q:1/4=173]B,[Q:1/4=171] C4) | %82
w: ru\- * * * * *|
[Q:1/4=170] D16 |] %83
w: pit.|
V:2
 A,8 D8- | D4 E4 F8- | F4 F4 E8 | E8 z4 E4 | A4 ^G4 z4 F4- | F4 E4 D8 | ^C8 z4 A,4 | %7
w: Re- ces\-|* sit Pa\-|* stor no-|ster, re-|ces- sit Pa\-|* stor no-|ster, fons|
[M:4/2] A,8 A,4 A,4- | A,4 A,4 z4 ^C4 | D8 F4 (F4- | F2 E2 D2 C2 D4) E4 | F8 z4 F4- | F4 E4 G8 | %13
w: a- quae vi\-|* vae, ad|cu- ius tran\-|* * * * * si-|tum sol|* ob- scu-|
 F4 D4 E8 | ^F8 z4 D4- | D4 C4 A,4 D4- | D4 G,4 A,8- | A,8 z4 C4- | C4 E4 F8 | E4 G8 G4 | %20
w: ra- tus est,|* sol|* ob- scu- ra\-|* tus est:|* Nam|* et il-|le ca- ptus|
 ^F8 z4 D4- | D4 E4 F8 | F4 E4 D8 | E8 G8 | E8 E4 E4 | E8 z4 ^C4- | C2 ^C2 C4 (D2 E2 F2 E2) | %27
w: est, qui|* ca- pti-|vum te- ne-|bat pri-|mum ho- mi-|nem: ho\-|* di- e por\- * * *|
 D4 (F8 E4) | F8 z4 F4 | E4 E4 D6 D2 | E8 z4 F4 | F4 E4 D8 | ^C8 z4 =C4 | (_B,8 A,8) | %34
w: tas mor\- *|tis, et|se- ras pa- ri-|ter Sal-|va- tor no-|ster dis-|ru\- *|
 A,8 z4 ^C4- | C2 ^C2 C4 (D2 E2 F2 E2) | D4 (F8 E4) | F8 z4 F4 | E4 E4 D6 D2 | E8 z4 F4 | %40
w: pit, ho\-|* di- e por\- * * *|tas mor\- *|tis, et|se- ras pa- ri-|ter Sal-|
 F4 E4 D8 | ^C8 z4 =C4 | (_B,8 A,8) | A,16 || D8 C4 B,4 | D4 E4 E8 | E8 z4 F4- | F4 F8 F4 | %48
w: va- tor no-|ster dis-|ru\- *|pit.|An- te cu-|ius con- spe-|ctum mors|* fu- git,|
 z4 F4 F4 F4 | z4 G4 G4 E4 | E4 E4 z4 D4- | D4 ^C4 C8 | A,4 (E6 D2 C2 B,2 | C2 A,2 F4) (E8 | %54
w: mors fu- git,|ad cu- ius|vo- cem mor\-|* tu- i|re- sur\- * * *|* * * gunt:|
 ^F8) z4 D4 | D4 E4 F8 | E8 D8 | E4 (G6 F2 E2 D2 | E8) F8 | z4 C12 | C4 z2 F2 E4 D4 | %61
w: * vi-|den- tes au-|tem e-|um por\- * * *|* tae|mor-|tis con- fra- ctae|
 ^C4 z2 F4 E4 D2 | C8 z4 C4 | _B,8 A,8 | A,8 z4 ^C4- | C2 ^C2 C4 (D2 E2 F2 E2) | D4 (F8 E4) | %67
w: sunt, con- fra- ctae|sunt, con-|fra- ctae|sunt. Ho\-|* di- e por\- * * *|tas mor\- *|
 F8 z4 F4 | E4 E4 D6 D2 | E8 z4 F4 | F4 E4 D8 | ^C8 z4 =C4 | (_B,8 A,8) | A,8 z4 ^C4- | %74
w: tis, et|se- ras pa- ri-|ter Sal-|va- tor no-|ster dis-|ru\- *|pit, ho\-|
 C2 ^C2 C4 (D2 E2 F2 E2) | D4 (F8 E4) | F8 z4 F4 | E4 E4 D6 D2 | E8 z4 F4 | F4 E4 D8 | ^C8 z4 =C4 | %81
w: * di- e por\- * * *|tas mor\- *|tis, et|se- ras pa- ri-|ter Sal-|va- tor no-|ster dis-|
 (_B,8 A,8) | A,16 |] %83
w: ru\- *|pit.|
V:3
 D8 A8- | A4 c4 c8 | d8 B8 | A8 z4 ^c4 | e4 e4 z4 =c4- | c4 c4 A8 | A8 z4 F4 | %7
w: Re- ces\-|* sit Pa-|stor no-|ster, re-|ces- sit Pa\-|* stor no-|ster, fons|
[M:4/2][K:treble-8] D4 E4 F8 | E8 z4 A4 | (B8 c8) | d4 (G2 A2 B4) c4 | c8 z4 c4- | c4 c4 d8- | %13
w: a- quae vi-|vae, ad|cu\- *|ius tran\- * * si-|tum sol|* ob- scu\-|
 d4 d8 ^c4 | d8 z4 A4- | A4 A4 F4 (D4- | D2 E2 F2 D2 E4) E4 | ^F8 z4 G4- | G4 c4 c8 | c4 d8 d4 | %20
w: * ra- tus|est, sol|* ob- scu- ra\-|* * * * * tus|est: Nam|* et il-|le ca- ptus|
 d8 z4 A4- | A4 c4 d8 | c4 c8 B4 | c4 e8 d4 | (c6 BA B6) B2 | A8 z4 A4- | A2 A2 A4 B4 c4 | %27
w: est, qui|* ca- pti-|vum te- ne-|bat pri- mum|ho\- * * * mi-|nem: ho\-|* di- e por- tas|
 d4 (d8 c2 B2 | c8) z4 d4 | B2 G2 c8 B4 | c8 z4 c4 | c4 c4 A8 | A8 z4 A4 | (G6 F2 E8) | D8 z4 A4- | %35
w: mor- tis, * *|* et|se- ras pa- ri-|ter Sal-|va- tor no-|ster dis-|ru\- * *|pit, ho\-|
 A2 A2 A4 B4 c4 | d4 (d8 c2 B2 | c8) z4 d4 | B2 G2 c8 B4 | c8 z4 c4 | c4 c4 A8 | A8 z4 A4 | %42
w: * di- e por- tas|mor- tis, * *|* et|se- ras pa- ri-|ter Sal-|va- tor no-|ster dis-|
 (G6 F2 E8) | D16 || A8 A4 ^G4 | A4 c4 B8 | A8 z4 c4- | c4 d8 c4 | z4 c4 d4 c4 | z4 e4 d4 c4 | %50
w: ru\- * *|pit.|An- te cu-|ius con- spe-|ctum mors|* fu- git,|mors fu- git,|ad cu- ius|
 B4 A4 z4 A4- | A4 A4 A4 E4 | (A6 B2 c2 d2 e4- | e2 d2 d6 ^cB !courtesy!^c4) | d8 z4 A4 | %55
w: vo- cem mor\-|* tu- i re-|sur\- * * * *||gunt: vi-|
 A4 c4 c8 | c4 (c6 BA B4) | c16 | z4 (c6 B2 A2 F2 | G4) A4 G8 | F4 z2 c2 c4 A4 | A4 z2 c4 c4 A2 | %62
w: den- tes au-|tem e\- * * *|um|por\- * * *|* tae mor-|tis con- fra- ctae|sunt, con- fra- ctae|
 A8 z4 A4 | (G6 F2 E4) E4 | ^F8 z4 A4- | A2 A2 A4 B4 c4 | d4 (d8 c2 B2 | c8) z4 d4 | B2 G2 c8 B4 | %69
w: sunt, con-|fra\- * * ctae|sunt. Ho\-|* di- e por- tas|mor- tis, * *|* et|se- ras pa- ri-|
 c8 z4 c4 | c4 c4 A8 | A8 z4 A4 | (G6 F2 E8) | D8 z4 A4- | A2 A2 A4 B4 c4 | d4 (d8 c2 B2 | %76
w: ter Sal-|va- tor no-|ster dis-|ru\- * *|pit, ho\-|* di- e por- tas|mor- tis, * *|
 c8) z4 d4 | B2 G2 c8 B4 | c8 z4 c4 | c4 c4 A8 | A8 z4 A4 | (G6 F2 E8) | D16 |] %83
w: * et|se- ras pa- ri-|ter Sal-|va- tor no-|ster dis-|ru\- * *|pit.|

